pix_core/t/email.svg

<svg preserveAspectRatio="xMinYMid meet" viewBox="0 0 512 512" xmlns="http://www.w3.org/2000/svg"><path d="m64 112c-8.8 0-16 7.2-16 16v22.1l172.5 141.6c20.7 17 50.4 17 71.1 0l172.4-141.6v-22.1c0-8.8-7.2-16-16-16zm-16 100.2v171.8c0 8.8 7.2 16 16 16h384c8.8 0 16-7.2 16-16v-171.8l-142 116.6c-38.4 31.5-93.7 31.5-132 0zm-48-84.2c0-35.3 28.7-64 64-64h384c35.3 0 64 28.7 64 64v256c0 35.3-28.7 64-64 64h-384c-35.3 0-64-28.7-64-64z" fill="#fff"/></svg>

<svg xmlns="http://www.w3.org/2000/svg" viewBox="0 0 512 512" preserveAspectRatio="xMinYMid meet"><!--!Font Awesome Free 6.5.2 by @fontawesome - https://fontawesome.com License - https://fontawesome.com/license/free Copyright 2024 Fonticons, Inc.--><path fill="#fff" d="M64 112c-8.8 0-16 7.2-16 16v22.1L220.5 291.7c20.7 17 50.4 17 71.1 0L464 150.1V128c0-8.8-7.2-16-16-16H64zM48 212.2V384c0 8.8 7.2 16 16 16H448c8.8 0 16-7.2 16-16V212.2L322 328.8c-38.4 31.5-93.7 31.5-132 0L48 212.2zM0 128C0 92.7 28.7 64 64 64H448c35.3 0 64 28.7 64 64V384c0 35.3-28.7 64-64 64H64c-35.3 0-64-28.7-64-64V128z"/></svg>
